static/logos/googleAnalytics-wordmark-color.svg

<svg width="100" height="16" viewBox="0 0 100 16" fill="none" xmlns="http://www.w3.org/2000/svg">
<g clip-path="url(#clip0_1_2598)">
<path d="M60.1654 5.56082L61.556 9.2115H58.8614L60.1654 5.56082ZM59.6438 4.34393L56.6016 12.3406H57.7316L58.5141 10.1676H61.9039L62.6864 12.3406H63.8164L60.7742 4.34393H59.6441H59.6438ZM76.0708 12.3406H77.1137V4.34393H76.0708V12.3406ZM65.3766 7.64664C65.7245 7.12501 66.4195 6.69056 67.1151 6.69056C68.5056 6.69056 69.2012 7.64664 69.2012 9.03751V12.4274H68.1583V9.21116C68.1583 8.0811 67.5502 7.64697 66.7678 7.64697C65.8985 7.64697 65.2901 8.51623 65.2901 9.29833V12.3406H64.2472V6.77772H65.2901L65.3769 7.64697L65.3766 7.64664ZM70.0708 10.6892C70.0708 9.47231 71.2009 8.77704 72.5046 8.77704C73.287 8.77704 73.8087 8.95103 73.9823 9.12501V8.95103C73.9823 8.08177 73.287 7.64697 72.5918 7.64697C71.9837 7.64697 71.4617 7.90778 71.2877 8.42941L70.3343 7.99427C70.5083 7.47265 71.2036 6.69022 72.5978 6.69022C73.9019 6.69022 75.0316 7.47265 75.0316 9.03718V12.3402H74.0756V11.5541H73.9887C73.7279 11.9885 73.1195 12.5101 72.1634 12.5101C71.0333 12.5101 70.0772 11.8149 70.0772 10.6848L70.0708 10.6892ZM73.9887 9.98954C73.9887 9.98954 73.5543 9.64157 72.6847 9.64157C71.6418 9.64157 71.207 10.2497 71.207 10.6845C71.207 11.2926 71.8151 11.5537 72.337 11.5537C73.1195 11.5537 73.9884 10.8585 73.9884 9.98954" fill="#757575"/>
<path fill-rule="evenodd" clip-rule="evenodd" d="M78.5889 14.7737L79.8058 11.9021L77.6328 6.86086H78.6757L80.3271 10.6852L81.9784 6.86086H83.0213L79.6321 14.7737H78.5892H78.5889ZM93.8862 8.68991C93.625 7.99397 93.0169 7.55984 92.4088 7.55984C91.5396 7.55984 90.7575 8.34228 90.7575 9.47201C90.7575 10.6017 91.5399 11.3842 92.4088 11.3842C93.0169 11.3842 93.6257 10.9497 93.8865 10.3413L94.7558 10.8629C94.3213 11.819 93.4517 12.4271 92.4088 12.4271C90.9311 12.4271 89.7142 11.123 89.7142 9.47201C89.7142 7.73349 90.9311 6.5166 92.4088 6.5166C93.4517 6.5166 94.321 7.12471 94.7558 8.08079L93.8865 8.6889L93.8862 8.68991Z" fill="#757575"/>
<path d="M97.6275 12.5142C99.0181 12.5142 99.7137 11.7318 99.7137 10.7757C99.7137 8.68957 96.6715 9.47166 96.6715 8.25544C96.6715 7.82098 97.0194 7.56017 97.6275 7.56017C98.2356 7.56017 98.8444 7.82098 99.1052 8.25544L99.7133 7.64734C99.3654 7.21288 98.4093 6.60443 97.5404 6.60443C96.2363 6.60443 95.5414 7.38686 95.5414 8.34294C95.5414 10.3419 98.6704 9.647 98.6704 10.6899C98.6704 11.2115 98.3225 11.5592 97.6275 11.5592C96.9326 11.5592 96.5846 11.1247 96.237 10.6899L95.4546 11.298C95.9762 11.8196 96.7586 12.5149 97.6275 12.5149V12.5142ZM87.7188 12.3402H88.7617V6.77774H87.7188V12.3406V12.3402Z" fill="#757575"/>
<path fill-rule="evenodd" clip-rule="evenodd" d="M88.1547 4.08313C88.5892 4.08313 88.85 4.4311 88.85 4.7784C88.85 5.21286 88.502 5.47367 88.1547 5.47367C87.8074 5.47367 87.4595 5.1257 87.4595 4.7784C87.4595 4.4311 87.8074 4.08313 88.1547 4.08313ZM86.6774 11.4716L86.8514 12.2541H85.8084C84.8524 12.2541 84.4179 11.5588 84.4179 10.5156V7.82097H83.375V6.77806H84.4179V5.12671H85.4608V6.77806H86.6777V7.82097H85.4608V10.6926C85.4608 11.475 86.0689 11.475 86.6777 11.475L86.6774 11.4716Z" fill="#757575"/>
<path d="M22.6196 7.5598V8.86385H25.6618C25.575 9.55912 25.3138 10.0807 24.9665 10.428C24.5321 10.8625 23.8364 11.3841 22.6196 11.3841C20.7942 11.3841 19.3165 9.90642 19.3165 7.99426C19.3165 6.16892 20.7942 4.60439 22.6196 4.60439C23.6625 4.60439 24.3581 5.03885 24.8831 5.47365L25.7523 4.60439C24.9699 3.90912 24.0138 3.30035 22.6233 3.30035C20.103 3.30035 17.9297 5.38649 17.9297 7.9071C17.9297 10.4277 20.0993 12.5135 22.6199 12.5135C24.0104 12.5135 25.0537 12.0791 25.8361 11.2095C26.7054 10.3402 26.9662 9.21047 26.9662 8.25406C26.9662 7.99325 26.9662 7.64595 26.8793 7.47162H22.6226L22.6196 7.5598ZM30.3554 6.52027C28.704 6.52027 27.4 7.73716 27.4 9.47568C27.4 11.2142 28.704 12.4307 30.3554 12.4307C32.0067 12.4307 33.3108 11.1267 33.3108 9.47568C33.3108 7.73716 32.0067 6.52027 30.3554 6.52027ZM30.3554 11.3007C29.4861 11.3007 28.704 10.5182 28.704 9.47534C28.704 8.43244 29.4864 7.65 30.3554 7.65C31.2243 7.65 32.0067 8.34527 32.0067 9.47534C32.0067 10.6054 31.2243 11.3007 30.3554 11.3007ZM44.6101 7.12838C44.2621 6.78041 43.7408 6.43311 42.9587 6.43311C41.481 6.43311 40.1773 7.73717 40.1773 9.38852C40.1773 11.0399 41.4814 12.3436 42.9587 12.3436C43.654 12.3436 44.2628 11.9956 44.5229 11.6483H44.6098V12.0828C44.6098 13.2128 44.0016 13.8213 43.0456 13.8213C42.2631 13.8213 41.7415 13.2132 41.5679 12.7784L40.4378 13.2128C40.7858 13.9953 41.6547 14.9514 43.0452 14.9514C44.6094 14.9514 45.9169 14.0821 45.9169 11.8223V6.43379H44.7V7.12906L44.6101 7.12838ZM43.1324 11.3007C42.2631 11.3007 41.5682 10.5182 41.5682 9.47534C41.5682 8.43244 42.2635 7.65 43.1324 7.65C44.0013 7.65 44.6966 8.43244 44.6966 9.47534C44.6966 10.5182 44.0013 11.3007 43.1324 11.3007ZM36.7871 6.52027C35.1358 6.52027 33.8317 7.73716 33.8317 9.47568C33.8317 11.2142 35.1358 12.4307 36.7871 12.4307C38.4385 12.4307 39.7425 11.1267 39.7425 9.47568C39.8293 7.73716 38.4385 6.52027 36.7871 6.52027ZM36.7871 11.3007C35.9179 11.3007 35.1358 10.5182 35.1358 9.47534C35.1358 8.43244 35.9182 7.65 36.7871 7.65C37.656 7.65 38.4385 8.34527 38.4385 9.47534C38.4385 10.6054 37.656 11.3007 36.7871 11.3007ZM46.8699 3.38784H48.1739V12.4274H46.8699V3.38784ZM51.7375 11.2973C51.0422 11.2973 50.6074 10.9493 50.2598 10.428L54.2581 8.77669L54.0841 8.42872C53.8233 7.73345 53.0412 6.51656 51.5638 6.51656C49.9996 6.51656 48.7824 7.73345 48.7824 9.47196C48.7824 11.1233 50.0864 12.427 51.7378 12.427C53.1283 12.427 53.9108 11.5578 54.2581 11.123L53.2152 10.4277C52.8672 10.9493 52.4327 11.297 51.7375 11.297V11.2973ZM51.6506 7.64662C52.1723 7.64662 52.6067 7.90743 52.7807 8.34189L50.0861 9.47196C50.0861 8.16791 50.9554 7.64662 51.6503 7.64662H51.6506Z" fill="#757575"/>
<path d="M10.1328 1.90311V13.7174C10.1328 15.0394 11.0458 15.776 12.0124 15.776C12.9074 15.776 13.8919 15.1495 13.8919 13.7174V1.99261C13.8919 0.780748 12.9969 0.0235596 12.0124 0.0235596C11.0278 0.0235596 10.1328 0.858616 10.1328 1.90311Z" fill="#F9AB00"/>
<path d="M5.21094 7.89976V13.7174C5.21094 15.0394 6.12384 15.776 7.09046 15.776C7.9855 15.776 8.97003 15.1495 8.97003 13.7174V7.98926C8.97003 6.7774 8.07503 6.0202 7.09046 6.0202C6.10594 6.0202 5.21094 6.85527 5.21094 7.89976Z" fill="#E37400"/>
<path d="M2.16862 15.776C3.20667 15.776 4.04818 14.9344 4.04818 13.8964C4.04818 12.8584 3.20667 12.0168 2.16862 12.0168C1.13057 12.0168 0.289062 12.8584 0.289062 13.8964C0.289062 14.9344 1.13057 15.776 2.16862 15.776Z" fill="#E37400"/>
</g>
<defs>
<clipPath id="clip0_1_2598">
<rect width="100" height="15.8784" fill="white"/>
</clipPath>
</defs>
</svg>

<svg xmlns="http://www.w3.org/2000/svg" width="400" height="64" fill="none" viewBox="0 0 100 16"><g clip-path="url(#a)"><path fill="#757575" d="m60.165 5.56 1.391 3.651h-2.695l1.304-3.65Zm-.521-1.216-3.042 7.997h1.13l.782-2.173h3.39l.782 2.173h1.13l-3.042-7.997h-1.13ZM76.07 12.34h1.043V4.344H76.07v7.997ZM65.377 7.647c.348-.522 1.043-.956 1.738-.956 1.39 0 2.086.956 2.086 2.347v3.39h-1.043V9.21c0-1.13-.608-1.564-1.39-1.564-.87 0-1.478.87-1.478 1.651v3.043h-1.043V6.778h1.043l.087.869Zm4.694 3.042c0-1.217 1.13-1.912 2.434-1.912.782 0 1.304.174 1.477.348v-.174c0-.87-.695-1.304-1.39-1.304-.608 0-1.13.26-1.304.782l-.954-.435c.174-.521.87-1.304 2.264-1.304 1.304 0 2.434.783 2.434 2.347v3.303h-.956v-.786h-.087c-.261.434-.87.956-1.826.956-1.13 0-2.086-.695-2.086-1.825l-.006.004Zm3.918-.7s-.435-.347-1.304-.347c-1.043 0-1.478.608-1.478 1.043 0 .608.608.869 1.13.869.782 0 1.651-.696 1.651-1.564"/><path fill="#757575" fill-rule="evenodd" d="m78.589 14.774 1.217-2.872-2.173-5.041h1.043l1.651 3.824 1.651-3.824h1.043l-3.389 7.913H78.59ZM93.886 8.69c-.261-.696-.87-1.13-1.477-1.13-.87 0-1.652.782-1.652 1.912s.783 1.912 1.652 1.912c.608 0 1.217-.434 1.477-1.043l.87.522c-.435.956-1.304 1.564-2.347 1.564-1.478 0-2.695-1.304-2.695-2.955 0-1.739 1.217-2.955 2.695-2.955 1.043 0 1.912.608 2.347 1.564l-.87.608Z" clip-rule="evenodd"/><path fill="#757575" d="M97.627 12.514c1.391 0 2.087-.782 2.087-1.738 0-2.086-3.043-1.304-3.043-2.52 0-.435.348-.696.956-.696.609 0 1.217.261 1.478.695l.608-.608c-.348-.434-1.304-1.043-2.173-1.043-1.304 0-1.999.783-1.999 1.739 0 1.999 3.13 1.304 3.13 2.347 0 .521-.349.87-1.044.87-.694 0-1.042-.435-1.39-.87l-.782.608c.521.522 1.304 1.217 2.172 1.217Zm-9.908-.174h1.043V6.778h-1.043v5.563Z"/><path fill="#757575" fill-rule="evenodd" d="M88.155 4.083c.434 0 .695.348.695.695a.686.686 0 0 1-.695.696c-.348 0-.695-.348-.695-.696 0-.347.347-.695.695-.695Zm-1.478 7.389.174.782h-1.043c-.956 0-1.39-.695-1.39-1.738V7.82h-1.043V6.778h1.043V5.127h1.043v1.651h1.217v1.043H85.46v2.872c0 .782.608.782 1.217.782v-.003Z" clip-rule="evenodd"/><path fill="#757575" d="M22.62 7.56v1.304h3.042c-.087.695-.348 1.217-.695 1.564-.435.434-1.13.956-2.347.956-1.826 0-3.303-1.478-3.303-3.39 0-1.825 1.477-3.39 3.303-3.39 1.043 0 1.738.435 2.263.87l.87-.87c-.783-.695-1.74-1.304-3.13-1.304-2.52 0-4.693 2.086-4.693 4.607 0 2.52 2.17 4.607 4.69 4.607 1.39 0 2.434-.435 3.216-1.304.87-.87 1.13-2 1.13-2.956 0-.26 0-.608-.087-.782h-4.256l-.003.088Zm7.735-1.04c-1.651 0-2.955 1.217-2.955 2.956 0 1.738 1.304 2.955 2.955 2.955a2.931 2.931 0 0 0 2.956-2.955c0-1.739-1.304-2.956-2.956-2.956Zm0 4.78c-.869 0-1.651-.782-1.651-1.825s.782-1.825 1.651-1.825c.87 0 1.652.695 1.652 1.825s-.783 1.826-1.652 1.826ZM44.61 7.129c-.348-.348-.87-.695-1.651-.695-1.478 0-2.782 1.304-2.782 2.956 0 1.65 1.304 2.955 2.782 2.955.695 0 1.304-.348 1.564-.696h.087v.435c0 1.13-.608 1.738-1.564 1.738-.783 0-1.304-.608-1.478-1.043l-1.13.435c.348.782 1.217 1.738 2.607 1.738 1.564 0 2.872-.869 2.872-3.129V6.434H44.7v.695h-.09Zm-1.478 4.173c-.869 0-1.564-.783-1.564-1.826 0-1.043.696-1.825 1.564-1.825.87 0 1.565.782 1.565 1.825s-.696 1.826-1.565 1.826Zm-6.345-4.78c-1.651 0-2.955 1.216-2.955 2.955 0 1.738 1.304 2.955 2.955 2.955a2.931 2.931 0 0 0 2.956-2.955c.086-1.739-1.305-2.956-2.956-2.956Zm0 4.78c-.87 0-1.651-.783-1.651-1.826 0-1.043.782-1.825 1.651-1.825s1.651.695 1.651 1.825-.782 1.826-1.65 1.826ZM46.87 3.388h1.304v9.04H46.87v-9.04Zm4.867 7.91c-.695 0-1.13-.349-1.477-.87l3.998-1.651-.174-.348c-.26-.696-1.043-1.912-2.52-1.912-1.564 0-2.782 1.216-2.782 2.955a2.93 2.93 0 0 0 2.956 2.955c1.39 0 2.173-.87 2.52-1.304l-1.043-.695c-.348.521-.782.869-1.478.869Zm-.086-3.651c.521 0 .956.26 1.13.695l-2.695 1.13c0-1.304.87-1.825 1.564-1.825Z"/><path fill="#F9AB00" d="M10.133 1.903v11.814c0 1.322.913 2.059 1.88 2.059.894 0 1.879-.627 1.879-2.059V1.993c0-1.212-.895-1.97-1.88-1.97-.984 0-1.88.836-1.88 1.88Z"/><path fill="#E37400" d="M5.21 7.9v5.817c0 1.322.914 2.059 1.88 2.059.896 0 1.88-.627 1.88-2.059V7.99c0-1.212-.895-1.969-1.88-1.969-.984 0-1.88.835-1.88 1.88ZM2.169 15.776a1.88 1.88 0 1 0 0-3.76 1.88 1.88 0 0 0 0 3.76Z"/></g><defs><clipPath id="a"><path fill="#fff" d="M0 0h100v15.878H0z"/></clipPath></defs></svg>
